X: 1
T: Haudanmaa ja peli-Jussi
O: trad, from Petri Hakala
R: march, reel
Z: 2012 John Chambers <jc:trillian.mit.edu>
S: printed MS of unknown origin
M: 4/4
L: 1/8
K: D
V: 1
|: Adfd e2ee | edfd e2e2 |1,3 B{c}BBd cde2 | edcB A2A2 :|2,4 B2Bd cded | [d4F4] [d4F4] :|
|: fefa gfge | fefa gfge |1,3 B2Bd cde2 | edcB A2A2 :|2,4 B2Bd cded | [d4F4] [d4F4] :|
V: 2
|: zdAF c2c2 | zdAF c2c2 |1,3 GFGB ABc2-| cBAG E2E2 :|2,4 GFGB A2GF | D4 D4 :|
|: dcdf edec | dcdf edeB |1,3 G2GB ABc2-| cBAG E4 :|2,4 G2GB A{B}AGF | D4 D4 :|
